public/avatar/item0/12.svg

<svg xmlns:xlink="http://www.w3.org/1999/xlink" height="58.65" width="49.15" xmlns="http://www.w3.org/2000/svg"><use height="33.7" transform="translate(8.15 15.6)" width="32" xlink:href="#a"/><defs><g id="a"><path d="M14.9 24.2q.5.55-.25 1.4l-1 .95q-2.55 1.35-5.25 2.5L2.55 31.2l-6.05-.15-4.8-1.95-3.2-1.5-1.6-1q-1.65-1.3-2.4-3.5l-.1-.8.05-.15-.05-.25-.05-.05q-.7-1.6.3-2.95l.3-.15q1.05.35.5 1.4l-.05.35.35 1.15.05.15.55 1.1q.25.45.15.95.55.25.3.7l.7.75q.35-.05.65.3l.55.55.6.25.45.15 5.15 1.65 5.5.85 1.35.2q2.7-.6 5.2-1.65 1.35-.65 2.85-1.05 1.5-.5 2.8-1.6 1.4-1.2 1.65-2.95-.25-.75.45-.95l.1-.05q1.15.45.7 1.75l-.6 1.45" fill="#282639" fill-opacity=".302" fill-rule="evenodd" transform="translate(15.95 2.5)"/><path d="M9.3-1.3q1.55-1.1 2.95-.45 1.4.65 1.65 2.5l.7 6.9q.25 2.45-1.5 4.2t-3.55.95L3.2 9.95q-1.85-.85-1.6-3.3.15-2.55 2.1-3.9L9.3-1.3" fill="#faf8ed" fill-rule="evenodd" transform="translate(15.95 2.5)"/><path d="M4.35 6.1Q4 5.2 7.15 3 10.3.85 11.1 1.2q.8.35 1.25 4.15Q12.8 9.2 12 9.5q-.8.3-4.05-1.1Q4.7 7 4.35 6.1" fill="#ff8282" fill-rule="evenodd" transform="translate(15.95 2.5)"/><path d="m-10-1.3 5.6 4.05q2 1.4 2.15 3.9.15 2.5-1.65 3.3l-6.35 2.85q-1.75.8-3.55-.95-1.75-1.85-1.5-4.2l.7-6.9q.25-1.85 1.65-2.5 1.4-.65 2.95.45" fill="#faf8ed" fill-rule="evenodd" transform="translate(15.95 2.5)"/><path d="M-5 6.1q-.35.9-3.6 2.3t-4.1 1.1q-.75-.3-.35-4.15.45-3.8 1.25-4.15.85-.35 3.95 1.8Q-4.7 5.15-5 6.1" fill="#ff8282" fill-rule="evenodd" transform="translate(15.95 2.5)"/><path d="M.25 4.05h3.8q3.1 0 6.75 2.9 4.75 3.7 4.75 9.6 0 9.8-7.8 10.55-1.65.15-3.9 1.35-2.1 1.1-3.6 1.1H.2q-1.55 0-3.6-1.1-2.25-1.2-3.9-1.35-7.85-.75-7.85-10.55 0-5.9 4.75-9.6 3.65-2.9 6.75-2.9H.2v.25l.05-.25" fill="#faf8ed" fill-rule="evenodd" transform="translate(15.95 2.5)"/><path d="M9.3-1.3 3.7 2.75l-1.2 1.3H.25L.2 4.3v-.25h-3.35l-1.25-1.3L-10-1.3q-1.55-1.1-2.95-.45-1.4.65-1.65 2.5l-.7 6.9q-.25 2.1 1.25 3.85-1.1 2.3-1.1 5.05 0 9.8 7.85 10.55 1.65.15 3.9 1.35 2.05 1.1 3.6 1.1h.05q1.5 0 3.6-1.1 2.25-1.2 3.9-1.35 7.8-.75 7.8-10.55 0-3.3-1.55-6 .75-1.35.6-2.9l-.7-6.9q-.25-1.85-1.65-2.5-1.4-.65-2.95.45Z" fill="none" stroke="#6b6a66" stroke-linecap="round" stroke-linejoin="round" transform="translate(15.95 2.5)"/><path d="M.1 17h.3l.45.05H.9l.1.05 1.05.5q.6.45-.2 1.55Q1.1 20.2.3 20.2H.25q-.8 0-1.6-1.05-.8-1.1-.2-1.55.45-.35 1.1-.5l.1-.05h.05L.1 17" fill="red" fill-rule="evenodd" transform="translate(15.95 2.5)"/><path d="M.1 19.3v3.75m0-.4.45.65q.6.6 1.6.6 1.6 0 2.1-.75m-8.45-.5.45.65q.6.6 1.6.6 1.65 0 2.1-.75" fill="none" stroke="red" stroke-linecap="round" stroke-linejoin="round" transform="translate(15.95 2.5)"/><path d="M5.4 24.45Q3.65 27.3-.05 27.3T-5 24.2q1.65 2 5.05 2t5.35-1.75M.3 14.4q3.55 0 5.45 3.5Q3 15.95.25 15.95q-1.75 0-3.75 1.05l-1.65 1.05Q-3.25 14.4.3 14.4" fill="#e0ca63" fill-rule="evenodd" transform="translate(15.95 2.5)"/><path d="m1.15 15.4 1.4-2.85q.5 0 0 3.25l-1.4-.4" fill="#e0ca63" fill-rule="evenodd" transform="translate(15.95 2.5)"/><path d="M12.35 18.35q0 2.35-2.35 2.35t-2.35-2.35Q7.65 16 10 16t2.35 2.35m-19.85 0q0 2.35-2.35 2.35t-2.35-2.35q0-2.35 2.35-2.35t2.35 2.35" fill="#ffc7d8" fill-rule="evenodd" transform="translate(15.95 2.5)"/><path d="M11.5 18.35q0 1.5-1.5 1.5t-1.5-1.5q0-1.5 1.5-1.5t1.5 1.5m-19.9.1q0 1.5-1.5 1.5t-1.5-1.5q0-1.5 1.5-1.5t1.5 1.5" fill="#ff7dcb" fill-rule="evenodd" transform="translate(15.95 2.5)"/><path d="m20.1 20.2 5.45-2.35M21 22.25l5.8-1.3m-5.3 3.4 5.45 1.25m-14.9-5.4L6.6 17.85m4.7 4.4-5.95-1.3m5.35 3.4L5.25 25.6" fill="none" stroke="#000" stroke-linecap="round" stroke-linejoin="round" stroke-width=".5"/><path d="M6 9.25Q5 9.1 5.05 7.7q0-1.35.6-1.7Q9.1 9.7 6 9.25M-6.15 9.2q-3.15.9-.15-3.25.7.25.85 1.55.2 1.4-.7 1.7" fill="#ffabab" fill-rule="evenodd" transform="translate(15.95 2.5)"/><path d="m4.15 13.8 1.15-1.6q1.45-1.55 2.8-1.35 2.25.3 3.65 3.35m-14.85-.4q-1.75-3.25-3.95-2.95-2.25.3-3.65 3.35" fill="none" stroke="#000" stroke-linecap="round" stroke-linejoin="round" transform="translate(15.95 2.5)"/></g></defs></svg>

<?xml version="1.0" encoding="UTF-8" standalone="no"?>
<svg xmlns:xlink="http://www.w3.org/1999/xlink" height="58.65px" width="49.15px" xmlns="http://www.w3.org/2000/svg">
  <g transform="matrix(1.0, 0.0, 0.0, 1.0, 24.1, 18.1)">
    <use height="33.7" transform="matrix(1.0, 0.0, 0.0, 1.0, -15.95, -2.5)" width="32.0" xlink:href="#shape0"/>
  </g>
  <defs>
    <g id="shape0" transform="matrix(1.0, 0.0, 0.0, 1.0, 15.95, 2.5)">
      <path d="M14.9 24.2 Q15.4 24.75 14.65 25.6 L13.65 26.55 Q11.1 27.9 8.4 29.05 L2.55 31.2 -3.5 31.05 -8.3 29.1 -11.5 27.6 -13.1 26.6 Q-14.75 25.3 -15.5 23.1 L-15.6 22.3 -15.55 22.15 -15.6 21.9 -15.65 21.85 Q-16.35 20.25 -15.35 18.9 L-15.05 18.75 Q-14.0 19.1 -14.55 20.15 L-14.6 20.5 -14.25 21.65 -14.2 21.8 -13.65 22.9 Q-13.4 23.35 -13.5 23.85 -12.95 24.1 -13.2 24.55 L-12.5 25.3 Q-12.15 25.25 -11.85 25.6 L-11.3 26.15 -10.7 26.4 -10.25 26.55 -5.1 28.2 0.4 29.05 1.75 29.25 Q4.45 28.65 6.95 27.6 8.3 26.95 9.8 26.55 11.3 26.05 12.6 24.95 14.0 23.75 14.25 22.0 14.0 21.25 14.7 21.05 L14.8 21.0 Q15.95 21.45 15.5 22.75 L14.9 24.2" fill="#282639" fill-opacity="0.3019608" fill-rule="evenodd" stroke="none"/>
      <path d="M9.3 -1.3 Q10.85 -2.4 12.25 -1.75 13.65 -1.1 13.9 0.75 L14.6 7.65 Q14.85 10.1 13.1 11.85 11.35 13.6 9.55 12.8 L3.2 9.95 Q1.35 9.1 1.6 6.65 1.75 4.1 3.7 2.75 L9.3 -1.3" fill="#faf8ed" fill-rule="evenodd" stroke="none"/>
      <path d="M4.35 6.1 Q4.0 5.2 7.15 3.0 10.3 0.85 11.1 1.2 11.9 1.55 12.35 5.35 12.8 9.2 12.0 9.5 11.2 9.8 7.95 8.4 4.7 7.0 4.35 6.1" fill="#ff8282" fill-rule="evenodd" stroke="none"/>
      <path d="M-10.0 -1.3 L-4.4 2.75 Q-2.4 4.15 -2.25 6.65 -2.1 9.15 -3.9 9.95 L-10.25 12.8 Q-12.0 13.6 -13.8 11.85 -15.55 10.0 -15.3 7.65 L-14.6 0.75 Q-14.35 -1.1 -12.95 -1.75 -11.55 -2.4 -10.0 -1.3" fill="#faf8ed" fill-rule="evenodd" stroke="none"/>
      <path d="M-5.0 6.1 Q-5.35 7.0 -8.6 8.4 -11.85 9.8 -12.7 9.5 -13.45 9.2 -13.05 5.35 -12.6 1.55 -11.8 1.2 -10.95 0.85 -7.85 3.0 -4.7 5.15 -5.0 6.1" fill="#ff8282" fill-rule="evenodd" stroke="none"/>
      <path d="M0.25 4.05 L4.05 4.05 Q7.15 4.05 10.8 6.95 15.55 10.65 15.55 16.55 15.55 26.35 7.75 27.1 6.1 27.25 3.85 28.45 1.75 29.55 0.25 29.55 L0.2 29.55 Q-1.35 29.55 -3.4 28.45 -5.65 27.25 -7.3 27.1 -15.15 26.35 -15.15 16.55 -15.15 10.65 -10.4 6.95 -6.75 4.05 -3.65 4.05 L0.2 4.05 0.2 4.3 0.25 4.05" fill="#faf8ed" fill-rule="evenodd" stroke="none"/>
      <path d="M9.3 -1.3 L3.7 2.75 2.5 4.05 0.25 4.05 0.2 4.3 0.2 4.05 -3.15 4.05 -4.4 2.75 -10.0 -1.3 Q-11.55 -2.4 -12.95 -1.75 -14.35 -1.1 -14.6 0.75 L-15.3 7.65 Q-15.55 9.75 -14.05 11.5 -15.15 13.8 -15.15 16.55 -15.15 26.35 -7.3 27.1 -5.65 27.25 -3.4 28.45 -1.35 29.55 0.2 29.55 L0.25 29.55 Q1.75 29.55 3.85 28.45 6.1 27.25 7.75 27.1 15.55 26.35 15.55 16.55 15.55 13.25 14.0 10.55 14.75 9.2 14.6 7.65 L13.9 0.75 Q13.65 -1.1 12.25 -1.75 10.85 -2.4 9.3 -1.3 Z" fill="none" stroke="#6b6a66" stroke-linecap="round" stroke-linejoin="round" stroke-width="1.0"/>
      <path d="M0.1 17.0 L0.4 17.0 0.85 17.05 0.9 17.05 1.0 17.1 2.05 17.6 Q2.65 18.05 1.85 19.15 1.1 20.2 0.3 20.2 L0.25 20.2 Q-0.55 20.2 -1.35 19.15 -2.15 18.05 -1.55 17.6 -1.1 17.25 -0.45 17.1 L-0.35 17.05 -0.3 17.05 0.1 17.0" fill="#ff0000" fill-rule="evenodd" stroke="none"/>
      <path d="M0.1 19.3 L0.1 23.05" fill="none" stroke="#ff0000" stroke-linecap="round" stroke-linejoin="round" stroke-width="1.0"/>
      <path d="M0.1 22.65 L0.55 23.3 Q1.15 23.9 2.15 23.9 3.75 23.9 4.25 23.15" fill="none" stroke="#ff0000" stroke-linecap="round" stroke-linejoin="round" stroke-width="1.0"/>
      <path d="M-4.2 22.65 L-3.75 23.3 Q-3.15 23.9 -2.15 23.9 -0.5 23.9 -0.05 23.15" fill="none" stroke="#ff0000" stroke-linecap="round" stroke-linejoin="round" stroke-width="1.0"/>
      <path d="M5.4 24.45 Q3.65 27.3 -0.05 27.3 -3.75 27.3 -5.0 24.2 -3.35 26.2 0.05 26.2 3.45 26.2 5.4 24.45" fill="#e0ca63" fill-rule="evenodd" stroke="none"/>
      <path d="M0.3 14.4 Q3.85 14.4 5.75 17.9 3.0 15.95 0.25 15.95 -1.5 15.95 -3.5 17.0 L-5.15 18.05 Q-3.25 14.4 0.3 14.4" fill="#e0ca63" fill-rule="evenodd" stroke="none"/>
      <path d="M1.15 15.4 L2.55 12.55 Q3.05 12.55 2.55 15.8 L1.15 15.4" fill="#e0ca63" fill-rule="evenodd" stroke="none"/>
      <path d="M12.35 18.35 Q12.35 20.7 10.0 20.7 7.65 20.7 7.65 18.35 7.65 16.0 10.0 16.0 12.35 16.0 12.35 18.35" fill="#ffc7d8" fill-rule="evenodd" stroke="none"/>
      <path d="M-7.5 18.35 Q-7.5 20.7 -9.85 20.7 -12.2 20.7 -12.2 18.35 -12.2 16.0 -9.85 16.0 -7.5 16.0 -7.5 18.35" fill="#ffc7d8" fill-rule="evenodd" stroke="none"/>
      <path d="M11.5 18.35 Q11.5 19.85 10.0 19.85 8.5 19.85 8.5 18.35 8.5 16.85 10.0 16.85 11.5 16.85 11.5 18.35" fill="#ff7dcb" fill-rule="evenodd" stroke="none"/>
      <path d="M-8.4 18.45 Q-8.4 19.95 -9.9 19.95 -11.4 19.95 -11.4 18.45 -11.4 16.95 -9.9 16.95 -8.4 16.95 -8.4 18.45" fill="#ff7dcb" fill-rule="evenodd" stroke="none"/>
      <path d="M4.15 17.7 L9.6 15.35" fill="none" stroke="#000000" stroke-linecap="round" stroke-linejoin="round" stroke-width="0.5"/>
      <path d="M5.05 19.75 L10.85 18.45" fill="none" stroke="#000000" stroke-linecap="round" stroke-linejoin="round" stroke-width="0.5"/>
      <path d="M5.55 21.85 L11.0 23.1" fill="none" stroke="#000000" stroke-linecap="round" stroke-linejoin="round" stroke-width="0.5"/>
      <path d="M-3.9 17.7 L-9.35 15.35" fill="none" stroke="#000000" stroke-linecap="round" stroke-linejoin="round" stroke-width="0.5"/>
      <path d="M-4.65 19.75 L-10.6 18.45" fill="none" stroke="#000000" stroke-linecap="round" stroke-linejoin="round" stroke-width="0.5"/>
      <path d="M-5.25 21.85 L-10.7 23.1" fill="none" stroke="#000000" stroke-linecap="round" stroke-linejoin="round" stroke-width="0.5"/>
      <path d="M6.0 9.25 Q5.0 9.1 5.05 7.7 5.05 6.35 5.65 6.0 9.1 9.7 6.0 9.25" fill="#ffabab" fill-rule="evenodd" stroke="none"/>
      <path d="M-6.15 9.2 Q-9.3 10.1 -6.3 5.95 -5.6 6.2 -5.45 7.5 -5.25 8.9 -6.15 9.2" fill="#ffabab" fill-rule="evenodd" stroke="none"/>
      <path d="M4.15 13.8 L5.3 12.2 Q6.75 10.65 8.1 10.85 10.35 11.15 11.75 14.2" fill="none" stroke="#000000" stroke-linecap="round" stroke-linejoin="round" stroke-width="1.0"/>
      <path d="M-3.1 13.8 Q-4.85 10.55 -7.05 10.85 -9.3 11.15 -10.7 14.2" fill="none" stroke="#000000" stroke-linecap="round" stroke-linejoin="round" stroke-width="1.0"/>
    </g>
  </defs>
</svg>
